T: An Leanbh Si
M: 4/4
L: 1/8
K: Gmaj
|:GB D4 E2|GB ed3 ed|B3G AB E2|D4 D2 GB|
D4 E2 GB| e3d ed B2|BG A3B G2| G4  z2 dB|
e4 d3 B/G/|B2 A4 dB|e4 d3 B/G/|A4 A2 z2|
GB D4 E2|GB ed3 ed|B3G AB G2|G4 G4||
